X:1
T:Title
%%score { ( 1 3 5 ) | ( 2 4 6 ) }
L:1/8
M:4/4
K:F
V:1 treble nm="Grand Piano"
V:3 treble 
V:5 treble 
V:2 bass 
V:4 bass 
V:6 bass 
V:1
 z4 z2[Q:1/4=104] C2 | A3 B A2 [^CG]2 | [DF]3 [DG] [DF]2 D2 | C2 F2 A2 [CFc]2 |[M:3/4] [EG]6 | %5
[M:1/4] [GB]2 |[M:4/4] z4 A2 z2 | [DF]3 [DG] [DF]2 D2 | C2 F2 [FA]2 [Fc]2 |[M:5/4] F2 z2 z2 z4 | %10
[M:4/4] z .c3 [Ac]4 | [FA] [FA]2 [FB] [FA]2 [C_EG]2 | [B,DF]3 [B,DG] [B,DF]2[K:bass] [F,B,D]2 | %13
 [B,D]2 [A,C]4 [A,C]2 | [G,CE]3[K:treble] [A,DF] [CEG]2 [CGB]2 | [CFA]3 [CGB] [CAc]2 [CFA]2 | %16
 [CEG]2 [CEc]2 [DFc]2 [DF=B]2 | [CEc]6 z2 | z .c3 [Ac]4 | [FA] [FA]2 [FB] [FA]2 [C_EG]2 | %20
 [B,DF]3 [B,DG] [B,DF]2[K:bass] [F,B,D]2 | [B,D]2 [A,C]4 [A,C]2 | %22
 .[F,B,D]2[K:treble] .[B,CE]2 .[CF]2 .[EG]2 | .[FA]2 .[GB]2 [Ac]4 | d c2 A c2 A2 | %25
[M:3/4] [EG]4 [CF]2 |] %26
V:2
 z4 z2 [F,A,]2 | [F,C]3 [F,D] [F,C]2 [A,,F,]2 | [B,,B,]3 [B,,B,] [B,,B,]2 [B,,F,B,]2 | %3
 [F,A,]2 [F,A,C]2 [F,CF]2 A,,2 |[M:3/4] [C,C]6 |[M:1/4] [C,C]2 | %6
[M:4/4] [F,CF]3 [F,DF] .[F,CF]2 [F,A,^C]2 | [B,,B,]3 [B,,B,] [B,,B,]2 [B,,F,B,]2 | %8
 [C,F,A,]2 [C,A,C]2 [C,C]2 [C,A,]2 |[M:5/4] z2 E4 F,4 |[M:4/4] z[K:treble] .A3[K:bass] z4 | %11
 C C2 D C2 A,,2 | B,,3 B,, B,,2 B,,2 | F,2 F,4 F,2 | C,3 C, C,2 E,2 | F,3 F, F,2 F,2 | %16
 G,2 G,2 G,2 G,2 | C,6 z2 | z[K:treble] .A3[K:bass] z4 | C C2 D C2 A,,2 | B,,3 B,, B,,2 B,,2 | %21
 F,2 F,4 F,2 | .B,,2 .G,,2 A,,2 [C,C]2 | [F,C]2 [F,C]2 [F,C]4 | %24
 [F,B,F] [F,A,F]2 [F,CF] [F,A,F]2 [F,CF]2 |[M:3/4] [C,B,]4 [F,A,]2 |] %26
V:3
 x8 | x8 | x8 | x8 |[M:3/4] x6 |[M:1/4] x2 |[M:4/4] A3 B z C G2 | x8 | x8 |[M:5/4] [B,G]6 [A,F]4 | %10
[M:4/4] .[Ac]2 z d z2 [A,C]2 | x8 | x6[K:bass] x2 | x8 | x3[K:treble] x5 | x8 | x8 | x8 | %18
 .[Ac]2 z d z2 [A,C]2 | x8 | x6[K:bass] x2 | x8 | x2[K:treble] x6 | x8 | x8 |[M:3/4] x6 |] %26
V:4
 x8 | x8 | x8 | x8 |[M:3/4] x6 |[M:1/4] x2 |[M:4/4] x8 | x8 | x8 |[M:5/4] C,6 z4 | %10
[M:4/4] z2[K:treble] z B[K:bass] F,,2 F,2 | x8 | x8 | x8 | x8 | x8 | x8 | x8 | %18
 z2[K:treble] z B[K:bass] F,,2 F,2 | x8 | x8 | x8 | x8 | x8 | x8 |[M:3/4] x6 |] %26
V:5
 x8 | x8 | x8 | x8 |[M:3/4] x6 |[M:1/4] x2 |[M:4/4] x8 | x8 | x8 |[M:5/4] x10 |[M:4/4] z2 C2 z4 | %11
 x8 | x6[K:bass] x2 | x8 | x3[K:treble] x5 | x8 | x8 | x8 | z2 C2 z4 | x8 | x6[K:bass] x2 | x8 | %22
 x2[K:treble] x6 | x8 | x8 |[M:3/4] x6 |] %26
V:6
 x8 | x8 | x8 | x8 |[M:3/4] x6 |[M:1/4] x2 |[M:4/4] x8 | x8 | x8 |[M:5/4] x10 | %10
[M:4/4] F,,2[K:treble] [F,A,]2[K:bass] z4 | x8 | x8 | x8 | x8 | x8 | x8 | x8 | %18
 F,,2[K:treble] [F,A,]2[K:bass] z4 | x8 | x8 | x8 | x8 | x8 | x8 |[M:3/4] x6 |] %26

